X: 10081
M: 3/8
L: 1/16
K: C
[|\
g2 f2 e2 | e2 d2 c2 | A2 d2 B2 | c4 c'2 | c'gegfe |
c4 d2 | d3 c B2 | B3 A G2 | A2 B2 c2 |
e3 d c2 | d2 c2 d2 | (edcd) (ef) | g3 f e2 | e3 d c2 |
d3 c (de) | c6 & c3geg | f>e dfdf | e>d cgeg | agfgab | "_Da Capo"c'6 |]



